!!!OTL: 728. Lang ist's her.
!!!COM: Clara Novello
!!!ODT: 1855 (um)
!!!ARE: Europa, Mitteleuropa, Deutschland; Ireland
!!!SCT: B0728
!!!TXL: @@DE
!!!YEM: Copyright 1995, estate of Helmut Schaffrath.
**kern	**text
*ICvox	*
*Ivox	*
*clefG2	*
*M4/4	*
*met(c)	*
*k[b-]	*
*F:	*
=1	=1
!LO:TX:a:t=Sehr mäßig.	!
{4f	Sag'
8f	mir
8g	das
4a	Wort,
8a	das
8b-	der-
=2	=2
8ccqq	.
4cc	-einſt
8ccqq	mich
8dd	hat
8cc	be-
4a	-thört,
4r}	.
=3	=3
{4cc	lang,
8b-	lang
8a	iſt
2g	her,
=4	=4
4b-	lang,
8a	lang
8g	iſt
2f}	her.
=5	=5
{4f	Sing'
8f	mit
8g	das
4a	Lied,
8a	daß
8b-	ich
=6	=6
8ccqq	.
4cc	einſt
8ccqq	ſo
8dd	gern
8cc	ge-
4a	-hört,
4r}	.
=7	=7
{4cc	lang,
8b-	lang
8a	iſt
2g	her,
=8	=8
4b-	lang,
8a	lang
8g	iſt
2f}	her.
=9	=9
{4cc	Dich
8b-	und
8a	mein
4g	Glück
8c	all'
8c	du
=10	=10
4b-	wie-
8a	-der
8g	mir
4f	giebſt,
4r}	.
=11	=11
{4cc	weiß
8b-	ja
8a	nicht
4g	mehr,
8c	wie
8c	.
=12	=12
4b-	lang
8a	du
8g	aus-
4f	-bliebſt,
4r}	.
=13	=13
{4f	weiß
8f	ja
8g	nur
4a	noch,
8a	daß
8b-	du
=14	=14
4cc	einſt
8dd	mich
8cc	ge-
4a	-liebt.
4r}	.
=15	=15
{4cc	Lang
8b-	iſt
8a	es
4g	her,
8a	lang
8g	iſt's
=16	=16
2f	her.
2r}	.
==	==
!!!AGN: Liebes - Lied, Leid, Klage
!!!GTL: Auslaendische Weisen, die in Deutschland gesungen wurden
!!!ONB: ESAC (Essen Associative Code) Database: BOEHME
!!!AMT: simple quadruple
!!!AIN: vox
!!!EED: Helmut Schaffrath
!!!EEV: 1.0
!!@@COMMENT:"Irisches Volkslied,das in der Uebersetzung auch in Deutschland seit 1855 sehr gekannt ist und als Gassenhauer. getrillert und gepfiffen, uns ueberal verfolgt."
!!@@END:
!!!URL-scan: https://archive.org/details/BoehmeVtLieder1895/page/n579/mode/2up
!!!ENC: Anna Maria Matuszewska
!!!EEV: 2024/18/07
*-	*-
